!!!!SEGMENT: pl-gd--ee-2628--006-013_stabile-annibale--il-terzo-libro-de-madrigali-a-cinque-voci-gia-fu-ch-io-desiai.krn
!!!cenid: 15xx:1080
!!!COM: Stabile, Annibale
!!!COM-rismID: pe30009662
!!!CDT: ~1535-1595/04
!!!CNT: Italian
!!!GTL: Il terzo libro de madrigali a cinque voci
!!!OTL: Gia fu ch’io desiai
!!!OMV: 013
!!!PDT: 1585
!!!AGN:
!!!SMS-siglum: PL-GD
!!!SMS-shelfmark: Ee 2628
!!!SMS-shelfwork: 006-013 G
!!!SMS-variant:
!!!SMS-altvar:
!!!NIFC-rismSourceID: 990060530
!!!NIFC-islandoraID: pl-gd:66139
!!!URL-pdf-islandora: https://repozytorium.nifc.pl/islandora/object/pl-gd%3A66139/datastream/PDF/view
!!!URL-scan: https://polish.musicsources.pl/pl/lokalizacje/galeria/klocki-introligatorskie/673 @EN{Scan on Polish Music Sources Website} @PL{Skany w portalu Dziedzictwo Muzyki Polskiej w otwartym dostępie}
!!!ONB-nifc: UWAGA: Canto: s. 90-101, Tenore: s. 246-257, Basso: s. 402-413, Quinto: s. 724-735. Dla głosu Alto proszę skorzystać z https://pbc.gda.pl/dlibra/publication/87582/edition/79411/content, str. 25-48. Uwaga: utwory podzielone wg spisu treści dostępnych na końcu ksiąg – proszę sprawdzać sąsiednie tytuły. Głos Quinto proszę umieszczać wg ambitusu (może się różnić w zależności od utworu).
!!!AIN: 1 alto 1 bass 1 soprn 1 tenor 1 vox
!!!key:
**kern	**text	**kern	**text	**kern	**text	**kern	**text	**kern	**text
*part5	*part5	*part4	*part4	*part3	*part3	*part2	*part2	*part1	*part1
*staff5	*staff5	*staff4	*staff4	*staff3	*staff3	*staff2	*staff2	*staff1	*staff1
*I"BASSO	*	*I"QVINTO	*	*I"TENORE	*	*I"ALTO	*	*I"CANTO	*
*I'B	*	*I'V	*	*I'T	*	*I'A	*	*I'S	*
*ICvox	*	*ICvox	*	*ICvox	*	*ICvox	*	*ICvox	*
*Ibass	*	*Ivox	*	*Itenor	*	*Ialto	*	*Isoprn	*
*clefF4	*	*clefC4	*	*clefC4	*	*clefC3	*	*clefC1	*
*k[]	*	*k[]	*	*k[]	*	*k[]	*	*k[]	*
*a:	*	*a:	*	*a:	*	*a:	*	*a:	*
*M2/1	*	*M2/1	*	*M2/1	*	*M2/1	*	*M2/1	*
*met(C)	*	*met(C)	*	*met(C)	*	*met(C)	*	*met(C)	*
=1-	=1-	=1-	=1-	=1-	=1-	=1-	=1-	=1-	=1-
2r	.	1e	GIa	00r	.	00r	.	00r	.
1E	GIa	.	.	.	.	.	.	.	.
.	.	2.c\	fù	.	.	.	.	.	.
2.F\	fù	.	.	.	.	.	.	.	.
.	.	4A/	ch'io	.	.	.	.	.	.
=2-	=2-	=2-	=2-	=2-	=2-	=2-	=2-	=2-	=2-
.	.	2c\	deſ-	.	.	.	.	.	.
4A\	ch'io	.	.	.	.	.	.	.	.
4G\	deſ-	2d\	-ta-	.	.	.	.	.	.
4F\	-ta-	.	.	.	.	.	.	.	.
4E\	-i	2e\	-i	.	.	.	.	.	.
4C/	da	.	.	.	.	.	.	.	.
4E\	la	4r	.	.	.	.	.	.	.
4F\	mia	4A/	da	.	.	.	.	.	.
=3-	=3-	=3-	=3-	=3-	=3-	=3-	=3-	=3-	=3-
2D/	ſtel-	4A/	la	2r	.	2r	.	2r	.
.	.	4B\	mia	.	.	.	.	.	.
2C/	-la	4.c\	ſtel-	1E	GIa	2e\	GIa	1g	GIa
.	.	8d\	.	.	.	.	.	.	.
*	*	*custos:e	*	*	*	*	*	*	*
!C	!	!LO:LB:g=original	!	!	!	!	!	!	!
1r	.	2e\	.	.	.	2.c/	fù	.	.
.	.	2A/	-la	2.F/	fù	.	.	2.a\	fù
.	.	.	.	.	.	4A/	ch'io	.	.
*custos:C	*	*	*	*	*	*	*	*	*
!LO:LB:g=original	!	!	!	!	!	!	!	!	!
=4-	=4-	=4-	=4-	=4-	=4-	=4-	=4-	=4-	=4-
0r	.	1r	.	.	.	2c/	deſ-	.	.
.	.	.	.	4A/	ch'io	.	.	4cc\	ch'io
.	.	.	.	4G/	deſ-	2d\	-ta-	4b\	deſ-
.	.	.	.	4F/	-ta-	.	.	4a\	-tai
.	.	2.c\	da	4E/	-i	4e\	-i	4g/	.
.	.	.	.	4C/	da	4e\	da	4g/	da
.	.	.	.	4E/	la	4e\	la	4g/	la
.	.	2A/	la	4F/	mia	4c/	mia	4a\	mia
=5-	=5-	=5-	=5-	=5-	=5-	=5-	=5-	=5-	=5-
1r	.	.	.	2D/	ſtel-	2d\	ſtel-	2f/	ſtel-
.	.	4B\	mia	.	.	.	.	.	.
.	.	2c\	ſtel-	2C/	-la	4g\	-la	2e/	-la
.	.	.	.	.	.	4e\	Il	.	.
*	*	*	*	*custos:E	*	*custos:g	*	*custos:g	*
!	!	!	!	!LO:LB:g=original	!	!LO:LB:g=original	!	!LO:LB:g=original	!
2r	.	2B\	-la	4r	.	8g\	lu-	2r	.
.	.	.	.	.	.	8f\	.	.	.
.	.	.	.	4E/	Il	8e\	.	.	.
.	.	.	.	.	.	8d\	.	.	.
2C/	Il	4r	.	8G/	lu-	4e\	.	2g/	Il
.	.	.	.	8F/	.	.	.	.	.
.	.	4G/	Il	8E/	.	4e\	-m'et	.	.
.	.	.	.	8D/	.	.	.	.	.
=6-	=6-	=6-	=6-	=6-	=6-	=6-	=6-	=6-	=6-
8AA/	lu-	2A/	lu-	4E/	.	2.e\	il	2.cc\	lu-
8BB/	.	.	.	.	.	.	.	.	.
8C/	.	.	.	4E/	-me	.	.	.	.
8D/	.	.	.	.	.	.	.	.	.
4E\	.	2G/	-me	4r	.	.	.	.	.
4G\	-me et	.	.	4G/	et	4d\	ſplen-	4b\	-me et
4F#X\	il	4D/	et	4A/	il	1d	-do-	4a\	il
4G\	ſplen-	4G/	il	4B\	ſplen-	.	.	4g/	ſplen-
2D/	-do-	2F#X/	ſplen-	2A/	-do-	.	.	2a\	-do-
*	*	*custos:F#	*	*	*	*	*	*	*
!	!	!LO:LB:g=original	!	!	!	!	!	!	!
=7-	=7-	=7-	=7-	=7-	=7-	=7-	=7-	=7-	=7-
2D/	-re	2F#yX/	-do-	2A/	-re	2d\	-re	4a\	-re
.	.	.	.	.	.	.	.	4dd\	Ve-
2GG/	Ve-	2G/	-re	2B\	Ve-	2d\	Ve-	8dd\	-der
.	.	.	.	.	.	.	.	8cc\	.
.	.	.	.	.	.	.	.	8b\	.
.	.	.	.	.	.	.	.	8a\	.
*custos:C	*	*	*	*	*	*	*	*	*
!LO:LB:g=original	!	!	!	!	!	!	!	!	!
2.C/	-der	8G/	Ve-	2c\	-der	2e\	-der	2.g\	.
.	.	8F#/	-der	.	.	.	.	.	.
.	.	8E/	.	.	.	.	.	.	.
.	.	8D/	.	.	.	.	.	.	.
*	*	*	*	*custos:E	*	*	*	*	*
!	!	!	!	!LO:LB:g=original	!	!	!	!	!
.	.	4E/	.	4r	.	4r	.	.	.
4AA/	a	4e\	a	4E/	a	4A/	a	4cc\	a
*	*	*	*	*	*	*	*	*custos:b	*
!	!	!	!	!	!	!	!	!LO:LB:g=original	!
=8-	=8-	=8-	=8-	=8-	=8-	=8-	=8-	=8-	=8-
4GG#X/	tut-	4e\	tut-	4E/	tut-	4B/	tut-	4b\	tut-
4AA/	-te	4c\	-te	4E/	-te	4e\	-te	4a\	-te
*	*	*	*	*	*	*custos:e	*	*	*
!	!	!	!	!	!	!LO:LB:g=original	!	!	!
2E\	l'ho-	2B\	l'ho-	2E/	l'ho-	2e\	l'ho-	2g#X/	l'ho-
1AA	-re	0A	-re	2E/	-re	1c#X	-re	1a	-re
.	.	.	.	1e\	Laſ-	.	.	.	.
=9-	=9-	=9-	=9-	=9-	=9-	=9-	=9-	=9-	=9-
1Fny	Laſ-	.	.	.	.	1r	.	2r	.
.	.	.	.	2d\	-ſo	.	.	1a	Laſ-
!	!	!LO:TX:t=P:problem:Verovio nie wyświetla pauzy	!	!	!	!	!	!	!
2E\	-ſo	1r	.	4r	.	1e	Laſ-	.	.
.	.	.	.	4c\	Laſ-	.	.	.	.
2E\	ma	.	.	4B\	-ſo	.	.	2gny/	-ſo
.	.	.	.	4c\	ma	.	.	.	.
=10-	=10-	=10-	=10-	=10-	=10-	=10-	=10-	=10-	=10-
4F\	hor	2r	.	4c\	hor	2d\	-ſo	2r	.
4G\	che	.	.	4B\	che	.	.	.	.
*	*	*	*	*	*	*	*	*	*ij
2A\	quel-	1A	Laſ-	1e	quel-	2r	.	1cc	Las-
1E	-la	.	.	.	.	2r	.	.	.
.	.	2G/	-ſo	2e\	-la	4r	.	2b\	-so
.	.	.	.	.	.	4e\	ma	.	.
*	*	*	*	*	*	*	*	*	*Xij
=11-	=11-	=11-	=11-	=11-	=11-	=11-	=11-	=11-	=11-
1r	.	4r	.	1r	.	4d\	hor	4r	.
.	.	4G/	ma	.	.	4g\	che	4b\	ma
.	.	4A/	hor	.	.	2f\	quel-	4cc\	hor
.	.	4B\	che	.	.	.	.	4dd\	che
2r	.	2c\	quel-	2r	.	2e\	-la	2ee\	quel-
2C/	Il	4c\	-la	4r	.	2g\	Il	2cc\	-la
.	.	4e\	Il	4c\	Il	.	.	.	.
*	*	*custos:d	*	*	*	*	*	*	*
!	!	!LO:LB:g=original	!	!	!	!	!	!	!
=12-	=12-	=12-	=12-	=12-	=12-	=12-	=12-	=12-	=12-
2.G\	ciel	4.d\	ciel	4.B\	ciel	2.g\	ciel	0r	.
.	.	8c\	.	8c\	.	.	.	.	.
*	*	*	*	*custos:d	*	*	*	*	*
!	!	!	!	!LO:LB:g=original	!	!	!	!	!
.	.	4B\	.	4d\	.	.	.	.	.
4E\	va-	4c\	va-	4e\	va-	4g\	va-	.	.
4G\	-gheg-	4B\	-gheg-	4.d\	-gheg-	4g\	-gheg-	.	.
4D/	-gia et	4A/	-gia et	.	.	4f\	-gia et	.	.
.	.	.	.	8c\	.	.	.	.	.
*custos:E	*	*	*	*	*	*	*	*	*
!LO:LB:g=original	!	!	!	!	!	!	!	!	!
*	*	*	*	*	*	*	*	*	*
2E\	mi-	2G#X/	mi-	4B\	.	2e\	mi-	.	.
.	.	.	.	4B\	-gia et	.	.	.	.
=13-	=13-	=13-	=13-	=13-	=13-	=13-	=13-	=13-	=13-
2AA/	-ra	1A	-ra	4.A/	mi-	2e\	-ra	2r	.
.	.	.	.	8G/	.	.	.	.	.
1A	Laſ-	.	.	2F/	.	2r	.	1cc	Laſ-
.	.	1r	.	1E	-re	2r	.	.	.
2G#X\	-ſo	.	.	.	.	2e\	ma	2b\	-ſo
*	*	*	*	*	*	*custos:d	*	*	*
!	!	!	!	!	!	!LO:LB:g=original	!	!	!
=14-	=14-	=14-	=14-	=14-	=14-	=14-	=14-	=14-	=14-
1r	.	2r	.	4B\	ma	4d\	hor	4r	.
.	.	.	.	4c\	hor	4g\	che	4e/	ma
*	*	*	*	*	*	*	*	*custos:a	*
!	!	!	!	!	!	!	!	!LO:LB:g=original	!
.	.	4r	.	4d\	che	4f\	quel-	4a\	hor
.	.	4Gny/	ma	2e\	quel-	4e\	-la	4g/	che
4r	.	4A/	hor	.	.	1r	.	2f/	quel-
4D/	ma	4B\	che	4d\	-la	.	.	.	.
4E\	hor	2c\	quel-	2r	.	.	.	2e/	-la
4F\	che	.	.	.	.	.	.	.	.
=15-	=15-	=15-	=15-	=15-	=15-	=15-	=15-	=15-	=15-
2Gny\	quel-	2B\	-la	0r	.	2r	.	4d/	Il
.	.	.	.	.	.	.	.	2dd\	ciel
4G\	-la	2d\	Il	.	.	2g\	Il	.	.
4G\	Il	.	.	.	.	.	.	4b\	Il
2.c\	ciel	2.e\	ciel	.	.	2.g\	ciel	2.cc\	ciel
4A\	va-	4f\	va-	.	.	4a\	va-	4cc\	va-
=16-	=16-	=16-	=16-	=16-	=16-	=16-	=16-	=16-	=16-
4c\	-gheg-	4e\	-gheg-	1r	.	4g\	-gheg-	4cc\	-gheg-
4F\	-gia et	4c\	-gia et	.	.	4f\	-gia et	4a\	-gia et
2G\	mi-	2B\	mi-	.	.	2d\	mi-	2g/	mi-
2C/	-ra	2c\	-ra	2r	.	2e\	-ra	2g/	-ra
*custos:C	*	*	*	*	*	*	*	*	*
!LO:LB:g=original	!	!	!	!	!	!	!	!	!
2.C/	Al-	2.c\	Al-	2.G/	Al-	2.e\	Al-	2.cc\	Al-
=17-	=17-	=17-	=17-	=17-	=17-	=17-	=17-	=17-	=17-
4GGny/	-tra	4d\	-tra	4G/	-tra	4g\	-tra	4b\	-tra
*	*	*	*	*custos:A	*	*	*	*	*
!	!	!	!	!LO:LB:g=original	!	!	!	!	!
2.D/	nu-	2.d\	nu-	2.A/	nu-	2.f\	nu-	2.a\	nu-
4D/	-be	4d\	-be	4D/	-be	4f\	-be	4a\	-be
2AA/	di	2c\	di	2E/	di	2e\	di	2a\	di
=18-	=18-	=18-	=18-	=18-	=18-	=18-	=18-	=18-	=18-
2E\	duol	2B\	duol	1E	duol	2e\	duol	2g#X/	duol
*	*	*	*	*	*	*	*	*custos:g#	*
!	!	!	!	!	!	!d	!	!LO:LB:g=original	!
4r	.	2B\	al	.	.	2e\	al	2g#/	al
4E\	al	.	.	.	.	.	.	.	.
*	*	*	*	*	*	*custos:d	*	*	*
!	!	!	!	!	!	!LO:LB:g=original	!	!	!
2F\	cor	2A/	cor	00r	.	4d\	cor	2a\	cor
.	.	.	.	.	.	4cny/	s'ag-	.	.
2E\	s'ag-	2G#X/	s'ag-	.	.	1e\	-gi-	2b\	s'ag-
=19-	=19-	=19-	=19-	=19-	=19-	=19-	=19-	=19-	=19-
4A\	-gi-	4A/	-gi-	.	.	.	.	4cc\	-gi-
4B\	.	4G#yX/	.	.	.	.	.	4b\	.
4c\	.	4Fny/	.	.	.	2A/	-ra	4a\	.
4B\	.	4Gny/	.	.	.	.	.	4b\	.
4A\	.	4A/	.	.	.	2r	.	4cc\	.
4G\	.	4B\	.	.	.	.	.	4b\	.
4F\	.	4c\	.	.	.	2c/	s'ag-	4a\	.
4E\	.	4G/	.	.	.	.	.	4gny\	.
*	*	*custos:A	*	*	*	*	*	*	*
!	!	!LO:LB:g=original	!	!	!	!	!	!	!
=20-	=20-	=20-	=20-	=20-	=20-	=20-	=20-	=20-	=20-
2D/	.	2A/	.	.	.	2d\	-gi-	2f/	.
2C/	-ra	2c\	-ra	.	.	2G/	-ra	2e/	-ra
1ryy	.	1ryy	.	1ryy	.	1ryy	.	1ryy	.
*custos:C	*	*	*	*	*	*	*	*	*
!LO:LB:g=original	!	!	!	!	!	!	!	!	!
=21-	=21-	=21-	=21-	=21-	=21-	=21-	=21-	=21-	=21-
*M3/1	*	*M3/1	*	*M3/1	*	*M3/1	*	*M3/1	*
*met(3)	*	*met(3)	*	*met(3)	*	*met(3)	*	*met(3)	*
*col	*	*col	*	*col	*	*col	*	*col	*
1C	Al-	1e	Al-	1G	Al-	1g	Al-	1cc	Al-
4GG/	-tra	4d\	-tra	4G/	-tra	4g\	-tra	4b\	-tre
4.D/	nu-	4.d\	nu-	4.A/	nu-	4.f\	nu-	4.a\	nu-
8D/	-be	8d\	-be	8D/	-be	8f\	-be	8a\	-be
4AA/	di	4c\	di	4E/	di	4e\	di	4a\	di
*Xcol	*	*Xcol	*	*Xcol	*	*Xcol	*	*Xcol	*
1ryy	.	1ryy	.	1ryy	.	1ryy	.	1ryy	.
=22-	=22-	=22-	=22-	=22-	=22-	=22-	=22-	=22-	=22-
*M2/1	*	*M2/1	*	*M2/1	*	*M2/1	*	*M2/1	*
*met(C)	*	*met(C)	*	*met(C)	*	*met(C)	*	*met(C)	*
1E	duol	1B	duol	2E/	duol	2e\	duol	2g#X/	duol
*	*	*	*	*	*	*	*	*custos:b	*
!	!	!	!	!	!	!	!	!LO:LB:g=original	!
.	.	.	.	2G#X/	al	2e\	al	2b\	al
1r	.	1r	.	2A/	cor	2e\	cor	2cc\	cor
.	.	.	.	2B\	s'ag-	2d\	s'ag-	2dd\	s'ag-
=23-	=23-	=23-	=23-	=23-	=23-	=23-	=23-	=23-	=23-
0r	.	0r	.	4c\	-gi-	4e\	-gi-	4gny/	-gi-
.	.	.	.	4d\	.	4d\	.	4f/	.
*	*	*	*	*	*	*custos:c	*	*	*
!	!	!	!	!	!	!LO:LB:g=original	!	!	!
.	.	.	.	4e\	.	4c\	.	4e/	.
.	.	.	.	4f\	.	4d\	.	4d/	.
.	.	.	.	4g\	.	4e\	.	4c/	.
.	.	.	.	4f\	.	4f\	.	4d/	.
*	*	*	*	*custos:e	*	*	*	*	*
!	!	!	!	!LO:LB:g=original	!	!	!	!	!
.	.	.	.	4e\	.	4g\	.	4e/	.
.	.	.	.	4d\	.	4f\	.	4f/	.
=24-	=24-	=24-	=24-	=24-	=24-	=24-	=24-	=24-	=24-
1r	.	1r	.	2c\	.	2e\	.	2g/	.
.	.	.	.	2c\	-ra	2e\	-ra	2g/	-ra
2C/	Poi	2G/	Poi	0r	.	2c/	Poi	2e/	Poi
4AA/	ch'un	4A/	ch'un	.	.	4c/	ch'un	4e/	ch'un
4D/	bel	4A/	bel	.	.	4d\	bel	4f/	bel
=25-	=25-	=25-	=25-	=25-	=25-	=25-	=25-	=25-	=25-
4C/	vel	4c\	vel	.	.	4e\	vel	4g/	vel
4E\	m'aſ-	4c\	m'aſ-	.	.	4e\	m'aſ-	4g/	m'a-
2G\	-con-	2B\	-con-	.	.	2d\	-con-	2g/	-ſcon-
1C	-de	2c\	-de	2r	.	2e\	-de	2g/	-de
.	.	2e\	L'al-	2C/	L'al-	2g\	L'al-	2cc\	L'al-
*	*	*custos:d	*	*	*	*	*	*custos:b	*
!	!	!LO:LB:g=original	!	!	!	!	!	!LO:LB:g=original	!
=26-	=26-	=26-	=26-	=26-	=26-	=26-	=26-	=26-	=26-
0r	.	2.d\	-te	2Gny/	-te	2g\	-te	2b\	-te
.	.	.	.	2A/	bel-	2e\	bel-	2a\	bel-
.	.	4c\	bel-	.	.	.	.	.	.
.	.	4B\	-lez-	2.E/	-lez-	2.e\	-lez-	4g/	-lez-
.	.	4G/	-ze a	.	.	.	.	4b\	-ze a
.	.	4G/	nul-	.	.	.	.	4cc\	nul-
.	.	4E/	-l'al-	4e\	-ze a	2g\	-ze a	4.b\	-l'al-
=27-	=27-	=27-	=27-	=27-	=27-	=27-	=27-	=27-	=27-
1r	.	4G/	-tre	2d\	nul-	.	.	.	.
.	.	.	.	.	.	.	.	8b\	-tre
.	.	4D/	ſe-	.	.	4f\	nul-	4a\	ſe-
*	*	*	*	*	*	*custos:e	*	*	*
!	!	!	!	!	!	!LO:LB:g=original	!	!	!
.	.	2E/	-con-	2B\	-l'al-	2e\	-l'al-	2g#X/	-con-
2r	.	4A/	-de	4c\	-tre	4e\	-tre	1a	-de
*	*	*	*ij	*	*	*	*	*	*
.	.	2e\	L'al-	4A/	ſe-	4c/	ſe-	.	.
4r	.	.	.	2F/	-con-	2A/	-con-	.	.
2A\	L'al-	4d\	-te	.	.	.	.	.	.
=28-	=28-	=28-	=28-	=28-	=28-	=28-	=28-	=28-	=28-
.	.	4c\	bel-	4E/	-de	2e\	-de	1r	.
2G\	-te	2B\	-lez-	4e\	L'al-	.	.	.	.
.	.	.	.	4d\	-te	4r	.	.	.
4F\	bel-	4A\	-ze a	4d\	bel-	2a\	L'al-	.	.
*	*	*	*	*custos:c	*	*	*	*	*
!	!	!	!	!LO:LB:g=original	!	!	!	!	!
4E\	-lez-	4e\	nul-	4c\	-lez-	.	.	4r	.
4E\	-ze a	4e\	-l'al-	4B\	-ze a	2g\	-te	2ee\	L'al-
4C#X/	nul-	4E/	-tre	4.A\	nul-	.	.	.	.
4D/	-l'al-	4F/	se-	.	.	4f\	bel-	4dd\	-te
.	.	.	.	8B\	.	.	.	.	.
=29-	=29-	=29-	=29-	=29-	=29-	=29-	=29-	=29-	=29-
4AA/	-tre	2A/	-con-	8c\	.	4e\	-lez-	4cc\	bel-
.	.	.	.	8d\	.	.	.	.	.
4AA/	ſe-	.	.	2e\	.	4c/	-ze a	2a\	-lez-
*	*	*custos:A	*	*	*	*	*	*	*
!	!	!LO:LB:g=original	!	!	!	!	!	!	!
2F\	-con-	2A/	-de	.	.	4c/	nul-	.	.
.	.	.	.	4d\	-l'al-	4A/	-l'al-	8gny/	.
.	.	.	.	.	.	.	.	8f/	.
2Cny/	-de	4r	.	4e\	-tre	4c/	-tre	4e/	.
*	*	*	*Xij	*	*	*	*	*	*
.	.	4e\	L'al-	4E/	ſe-	4G/	ſe-	4e/	-ze
*	*	*	*	*	*	*	*	*custos:a	*
!	!	!	!	!	!	!	!	!LO:LB:g=original	!
2r	.	4c\	-te	2F/	-con-	2A/	-con-	4r	.
.	.	4d\	bel-	.	.	.	.	4a\	a
=30-	=30-	=30-	=30-	=30-	=30-	=30-	=30-	=30-	=30-
!	!	!	!	!LO:N:vis=00	!	!LO:N:vis=00	!	!	!
4r	.	4B\	-lez-	00.E	-de.	00.e	-de.	2.g/	nul-
4C/	a	4c\	-ze a	.	.	.	.	.	.
4C/	nul-	4G/	nul-	.	.	.	.	.	.
4AA/	-l'al-	4.c\	-l'al-	.	.	.	.	4.a\	-l'al-
4C/	-tre	.	.	.	.	.	.	.	.
.	.	8c\	-tre	.	.	.	.	8a\	-tre
4GG/	ſe-	4B\	ſe-	.	.	.	.	4b\	ſe-
2AA/	-con-	2A/	-con-	.	.	.	.	2cc\	-con-
=31-	=31-	=31-	=31-	=31-	=31-	=31-	=31-	=31-	=31-
00E	-de.	00G#X	-de.	.	.	.	.	00b	-de.
==	==	==	==	==	==	==	==	==	==
*-	*-	*-	*-	*-	*-	*-	*-	*-	*-
!!!system-decoration: [(s1,s2,s3,s4,s5)]
!!!ENC: Andrzej Gręziak
!!!END: 2022-07-12
!!!ENC: Natalia Wrzos
!!!END: 2022-08-03
!!!YEC: Copyright 2022 Narodowy Instytut Fryderyka Chopina (https://polishscores.org)
!!!YEM: Licence CC BY 4.0 (https://creativecommons.org/licenses/by/4.0)
